X:1
T:Who Will Our Pilot Be?
T:Ira Bishop Wilson
T:Who Will Our Pilot Be?
T:Public Domain
T:Public Domain
C:Ira Bishop Wilson
Z:Public Domain
%%score ( 1 2 ) ( 3 4 )
L:1/8
M:6/8
K:Db
V:1 treble 
V:2 treble 
V:3 bass 
V:4 bass 
V:1
 [FA] | [FB]2 [FA] [DF][CE]D | [CG]2 [CG] [CG]3 | [CE][DF][EG] [Ac]2 [GB] | (F2 F [FA]2) [FA] | %5
w: 1.~We|sail a- long toward the|bor light, O-|ver the great life sea;|The * * break-|
w: 2.~We|sail a- long in the|ing bright, Hap-|py and glad are we;|But * * still|
w: 3.~We|sail a- long, there are|they say, Dan-|gers from which to flee;|We * * face|
 [FB]2 [FA] [DF][CE]D | [CG]2 [CG] [CG]3 | [D=G][DG][DG] [Ec]2 [DB] | (z2 F [CGA]2) || %9
w: roar and the waves dash|Who will our|pi- lot be? The Christ||
w: ask, as the rocks draw|Who will our|pi- lot be? * *||
w: storm with a heav- y|Who will our|pi- lot be? * *||
"^Refrain" [GA] | d>cB [FA]2 [FB] | (G2 G [Gc]2) [EG] | cB[FA] [EG]2 [CA] | %13
w: |our * pi- lot be,|won- * * der-|* guide is He; So|
w: ||||
w: ||||
 (D2 D [DF]2) [DF]/[EG]/ | (F2 F) (F2 F) | (G2 D [=Ed]2) z | [FA][FB][FA] [DFf]2 [CEe] | %17
w: sail, * * sail sail!|* * will *|lot * *||
w: ||||
w: ||||
 [Dd]3- [Dd]2 |] %18
w: |
w: |
w: |
V:2
 x | x5 D | x6 | x6 | A3- x3 | x5 D | x6 | x6 | [CA]3- x2 || x | F3 x3 | c3- x3 | G2 x4 | F3- x3 | %14
w: |har-|||ers|high,|||will||A|ful|we’ll|Christ|
w: |morn-|||we|near,|||||||||
w: |shoals,|||the|heart,|||||||||
 A3 d3 | d3- x3 | x6 | x5 |] %18
w: our pi-|be.|||
w: ||||
w: ||||
V:3
 z | [D,A,]3 [A,,A,]3 | [E,A,]2 [E,A,] [E,A,]3 | [A,,A,]3 [A,,A,]3 | ([D,A,]2 [D,A,] [D,A,]2) z | %5
w: |~ ~|~ ~ ~|~ ~|~ * *|
 [D,A,]3 [A,,A,]3 | [E,A,]2 [E,A,] [E,A,]3 | [E,B,][E,B,][E,B,] [E,B,]2 [E,=G,] | %8
w: ~ ~|~ ~ ~|~ ~ ~ ~ ~|
 [A,,A,]3- [A,,A,]2 || A, | [D,A,]3 [D,A,]2 [D,A,] | [E,A,]2 [E,A,] [E,A,]2 [C,A,] | %12
w: ~ *|The|will our Pi-|lot be, A won-|
 [A,,A,]3 [A,,A,]2 [A,,A,] | [D,A,]2 [D,A,] [D,A,]2 z | [D,A,]2 [D,A,] [_C,_C]2 [C,A,] | %15
w: der- ful Guide|is He; So|we’ll sail, yes, so|
 [B,,B,]2 [B,,B,] [__B,,=G,]2 z | [A,,A,][A,,D][A,,D] [A,,A,]2 [A,,G,] | [D,F,]3- [D,F,]2 |] %18
w: we’ll sail! *|||
V:4
 x | x6 | x6 | x6 | x6 | x6 | x6 | x6 | x5 || A, | x6 | x6 | x6 | x6 | x6 | x6 | x6 | x5 |] %18
w: |||||||||Christ|||||||||

